movekom_app/assets/icons/kitchen.svg

<svg height="81.403" viewBox="0 0 142.323 81.403" width="142.323" xmlns="http://www.w3.org/2000/svg"><g fill="#393939"><path d="m200.579 307.2h-61.673a2.265 2.265 0 0 0 -2.372 2.142v47.128a2.265 2.265 0 0 0 2.372 2.142h61.674a2.264 2.264 0 0 0 2.372-2.142v-47.128a2.264 2.264 0 0 0 -2.373-2.142zm-2.372 47.128h-56.929v-42.844h56.929z" transform="translate(-98.581 -277.21)"/><path d="m200.579 307.2h-61.673a2.265 2.265 0 0 0 -2.372 2.142v47.128a2.265 2.265 0 0 0 2.372 2.142h61.674a2.264 2.264 0 0 0 2.372-2.142v-47.128a2.264 2.264 0 0 0 -2.373-2.142zm-2.372 47.128h-56.929v-42.844h56.929z" transform="translate(-98.581 -277.21)"/><path d="m40.325 307.2h-37.953a2.265 2.265 0 0 0 -2.372 2.142v47.128a2.265 2.265 0 0 0 2.372 2.142h37.953a2.265 2.265 0 0 0 2.375-2.142v-47.128a2.265 2.265 0 0 0 -2.375-2.142zm-2.372 47.128h-33.209v-42.844h33.209v42.843z" transform="translate(0 -277.21)"/><path d="m398.725 307.2h-37.953a2.264 2.264 0 0 0 -2.372 2.142v47.128a2.264 2.264 0 0 0 2.372 2.142h37.953a2.264 2.264 0 0 0 2.372-2.142v-47.128a2.263 2.263 0 0 0 -2.372-2.142zm-2.372 47.128h-33.209v-42.844h33.209v42.843z" transform="translate(-258.774 -277.21)"/><path d="m215.736 375.467h-42.7a2.265 2.265 0 0 0 -2.372 2.142v21.422a2.265 2.265 0 0 0 2.372 2.142h42.7a2.264 2.264 0 0 0 2.372-2.142v-21.422a2.264 2.264 0 0 0 -2.372-2.142zm-2.372 21.422h-37.953v-17.138h37.953v17.137z" transform="translate(-123.226 -328.339)"/><path d="m0 0h4.744v4.284h-4.744z" transform="translate(73.534 38.559)"/><path d="m0 0h4.744v4.284h-4.744z" transform="translate(64.045 38.559)"/><path d="m0 0h4.744v4.284h-4.744z" transform="translate(54.557 38.559)"/><path d="m0 0h4.744v4.284h-4.744z" transform="translate(83.022 38.559)"/><path d="m0 0h37.953v4.284h-37.953z" transform="translate(2.372 47.128)"/><path d="m0 0h9.488v4.284h-9.488z" transform="translate(16.604 38.559)"/><path d="m0 0h9.488v4.284h-9.488z" transform="translate(16.604 55.696)"/><path d="m0 0h37.953v4.284h-37.953z" transform="translate(101.998 47.128)"/><path d="m0 0h4.744v29.99h-4.744z" transform="translate(118.603 49.27)"/><path d="m0 0h9.488v4.284h-9.488z" transform="translate(116.231 38.559)"/><path d="m0 0h4.744v6.427h-4.744z" transform="translate(109.114 59.981)"/><path d="m0 0h4.744v6.427h-4.744z" transform="translate(128.091 59.981)"/><path d="m436.155 187.733c-5.233 0-9.488 3.843-9.488 8.569v2.142h4.744v-2.144a4.769 4.769 0 0 1 9.488 0v23.564h4.744v-23.564c0-4.724-4.255-8.567-9.488-8.567z" transform="translate(-308.064 -187.733)"/><path d="m0 0h7.116v4.284h-7.116z" transform="translate(128.091 21.422)"/><path d="m179.693 256h-23.72a2.265 2.265 0 0 0 -2.372 2.142v12.858a2.265 2.265 0 0 0 2.372 2.142h23.721a2.265 2.265 0 0 0 2.371-2.142v-12.858a2.265 2.265 0 0 0 -2.372-2.142zm-2.372 12.853h-18.976v-8.569h18.977z" transform="translate(-110.904 -238.863)"/><path d="m0 0h7.116v4.284h-7.116z" transform="translate(37.953 21.422)"/><path d="m0 0h7.116v4.284h-7.116z" transform="translate(68.79 21.422)"/></g></svg>

<svg xmlns="http://www.w3.org/2000/svg" id="prefix__kitchen" width="142.323" height="81.403" viewBox="0 0 142.323 81.403">
    <defs>
        <style>
            .prefix__cls-1{fill:#393939}
        </style>
    </defs>
    <g id="prefix__SVGCleanerId_0" transform="translate(37.953 29.99)">
        <g id="prefix__Grupo_60" data-name="Grupo 60">
            <path id="prefix__Trazado_305" d="M200.579 307.2h-61.673a2.265 2.265 0 0 0-2.372 2.142v47.128a2.265 2.265 0 0 0 2.372 2.142h61.674a2.264 2.264 0 0 0 2.372-2.142v-47.128a2.264 2.264 0 0 0-2.373-2.142zm-2.372 47.128h-56.929v-42.844h56.929z" class="prefix__cls-1" data-name="Trazado 305" transform="translate(-136.534 -307.2)"/>
        </g>
    </g>
    <g id="prefix__Grupo_62" data-name="Grupo 62" transform="translate(37.953 29.99)">
        <g id="prefix__Grupo_61" data-name="Grupo 61">
            <path id="prefix__Trazado_306" d="M200.579 307.2h-61.673a2.265 2.265 0 0 0-2.372 2.142v47.128a2.265 2.265 0 0 0 2.372 2.142h61.674a2.264 2.264 0 0 0 2.372-2.142v-47.128a2.264 2.264 0 0 0-2.373-2.142zm-2.372 47.128h-56.929v-42.844h56.929z" class="prefix__cls-1" data-name="Trazado 306" transform="translate(-136.534 -307.2)"/>
        </g>
    </g>
    <g id="prefix__Grupo_64" data-name="Grupo 64" transform="translate(0 29.99)">
        <g id="prefix__Grupo_63" data-name="Grupo 63">
            <path id="prefix__Trazado_307" d="M40.325 307.2H2.372A2.265 2.265 0 0 0 0 309.342v47.128a2.265 2.265 0 0 0 2.372 2.142h37.953a2.265 2.265 0 0 0 2.375-2.142v-47.128a2.265 2.265 0 0 0-2.375-2.142zm-2.372 47.128H4.744v-42.844h33.209v42.843z" class="prefix__cls-1" data-name="Trazado 307" transform="translate(0 -307.2)"/>
        </g>
    </g>
    <g id="prefix__Grupo_66" data-name="Grupo 66" transform="translate(99.626 29.99)">
        <g id="prefix__Grupo_65" data-name="Grupo 65">
            <path id="prefix__Trazado_308" d="M398.725 307.2h-37.953a2.264 2.264 0 0 0-2.372 2.142v47.128a2.264 2.264 0 0 0 2.372 2.142h37.953a2.264 2.264 0 0 0 2.372-2.142v-47.128a2.263 2.263 0 0 0-2.372-2.142zm-2.372 47.128h-33.209v-42.844h33.209v42.843z" class="prefix__cls-1" data-name="Trazado 308" transform="translate(-358.4 -307.2)"/>
        </g>
    </g>
    <g id="prefix__Grupo_68" data-name="Grupo 68" transform="translate(47.441 47.128)">
        <g id="prefix__Grupo_67" data-name="Grupo 67">
            <path id="prefix__Trazado_309" d="M215.736 375.467h-42.7a2.265 2.265 0 0 0-2.372 2.142v21.422a2.265 2.265 0 0 0 2.372 2.142h42.7a2.264 2.264 0 0 0 2.372-2.142v-21.422a2.264 2.264 0 0 0-2.372-2.142zm-2.372 21.422h-37.953v-17.138h37.953v17.137z" class="prefix__cls-1" data-name="Trazado 309" transform="translate(-170.667 -375.467)"/>
        </g>
    </g>
    <g id="prefix__Grupo_70" data-name="Grupo 70" transform="translate(73.534 38.559)">
        <g id="prefix__Grupo_69" data-name="Grupo 69">
            <path id="prefix__Rectángulo_1137" d="M0 0H4.744V4.284H0z" class="prefix__cls-1" data-name="Rectángulo 1137"/>
        </g>
    </g>
    <g id="prefix__Grupo_72" data-name="Grupo 72" transform="translate(64.045 38.559)">
        <g id="prefix__Grupo_71" data-name="Grupo 71">
            <path id="prefix__Rectángulo_1138" d="M0 0H4.744V4.284H0z" class="prefix__cls-1" data-name="Rectángulo 1138"/>
        </g>
    </g>
    <g id="prefix__Grupo_74" data-name="Grupo 74" transform="translate(54.557 38.559)">
        <g id="prefix__Grupo_73" data-name="Grupo 73">
            <path id="prefix__Rectángulo_1139" d="M0 0H4.744V4.284H0z" class="prefix__cls-1" data-name="Rectángulo 1139"/>
        </g>
    </g>
    <g id="prefix__Grupo_76" data-name="Grupo 76" transform="translate(83.022 38.559)">
        <g id="prefix__Grupo_75" data-name="Grupo 75">
            <path id="prefix__Rectángulo_1140" d="M0 0H4.744V4.284H0z" class="prefix__cls-1" data-name="Rectángulo 1140"/>
        </g>
    </g>
    <g id="prefix__Grupo_78" data-name="Grupo 78" transform="translate(2.372 47.128)">
        <g id="prefix__Grupo_77" data-name="Grupo 77">
            <path id="prefix__Rectángulo_1141" d="M0 0H37.953V4.284H0z" class="prefix__cls-1" data-name="Rectángulo 1141"/>
        </g>
    </g>
    <g id="prefix__Grupo_80" data-name="Grupo 80" transform="translate(16.604 38.559)">
        <g id="prefix__Grupo_79" data-name="Grupo 79">
            <path id="prefix__Rectángulo_1142" d="M0 0H9.488V4.284H0z" class="prefix__cls-1" data-name="Rectángulo 1142"/>
        </g>
    </g>
    <g id="prefix__Grupo_82" data-name="Grupo 82" transform="translate(16.604 55.696)">
        <g id="prefix__Grupo_81" data-name="Grupo 81">
            <path id="prefix__Rectángulo_1143" d="M0 0H9.488V4.284H0z" class="prefix__cls-1" data-name="Rectángulo 1143"/>
        </g>
    </g>
    <g id="prefix__Grupo_84" data-name="Grupo 84" transform="translate(101.998 47.128)">
        <g id="prefix__Grupo_83" data-name="Grupo 83">
            <path id="prefix__Rectángulo_1144" d="M0 0H37.953V4.284H0z" class="prefix__cls-1" data-name="Rectángulo 1144"/>
        </g>
    </g>
    <g id="prefix__Grupo_86" data-name="Grupo 86" transform="translate(118.603 49.27)">
        <g id="prefix__Grupo_85" data-name="Grupo 85">
            <path id="prefix__Rectángulo_1145" d="M0 0H4.744V29.99H0z" class="prefix__cls-1" data-name="Rectángulo 1145"/>
        </g>
    </g>
    <g id="prefix__Grupo_88" data-name="Grupo 88" transform="translate(116.231 38.559)">
        <g id="prefix__Grupo_87" data-name="Grupo 87">
            <path id="prefix__Rectángulo_1146" d="M0 0H9.488V4.284H0z" class="prefix__cls-1" data-name="Rectángulo 1146"/>
        </g>
    </g>
    <g id="prefix__Grupo_90" data-name="Grupo 90" transform="translate(109.114 59.981)">
        <g id="prefix__Grupo_89" data-name="Grupo 89">
            <path id="prefix__Rectángulo_1147" d="M0 0H4.744V6.427H0z" class="prefix__cls-1" data-name="Rectángulo 1147"/>
        </g>
    </g>
    <g id="prefix__Grupo_92" data-name="Grupo 92" transform="translate(128.091 59.981)">
        <g id="prefix__Grupo_91" data-name="Grupo 91">
            <path id="prefix__Rectángulo_1148" d="M0 0H4.744V6.427H0z" class="prefix__cls-1" data-name="Rectángulo 1148"/>
        </g>
    </g>
    <g id="prefix__Grupo_96" data-name="Grupo 96" transform="translate(118.603)">
        <g id="prefix__Grupo_95" data-name="Grupo 95">
            <path id="prefix__Trazado_311" d="M436.155 187.733c-5.233 0-9.488 3.843-9.488 8.569v2.142h4.744V196.3a4.769 4.769 0 0 1 9.488 0v23.564h4.744V196.3c0-4.724-4.255-8.567-9.488-8.567z" class="prefix__cls-1" data-name="Trazado 311" transform="translate(-426.667 -187.733)"/>
        </g>
    </g>
    <g id="prefix__Grupo_98" data-name="Grupo 98" transform="translate(128.091 21.422)">
        <g id="prefix__Grupo_97" data-name="Grupo 97">
            <path id="prefix__Rectángulo_1149" d="M0 0H7.116V4.284H0z" class="prefix__cls-1" data-name="Rectángulo 1149"/>
        </g>
    </g>
    <g id="prefix__Grupo_100" data-name="Grupo 100" transform="translate(42.697 17.137)">
        <g id="prefix__Grupo_99" data-name="Grupo 99">
            <path id="prefix__Trazado_312" d="M179.693 256h-23.72a2.265 2.265 0 0 0-2.372 2.142V271a2.265 2.265 0 0 0 2.372 2.142h23.721a2.265 2.265 0 0 0 2.371-2.142v-12.858a2.265 2.265 0 0 0-2.372-2.142zm-2.372 12.853h-18.976v-8.569h18.977z" class="prefix__cls-1" data-name="Trazado 312" transform="translate(-153.601 -256)"/>
        </g>
    </g>
    <g id="prefix__Grupo_102" data-name="Grupo 102" transform="translate(37.953 21.422)">
        <g id="prefix__Grupo_101" data-name="Grupo 101">
            <path id="prefix__Rectángulo_1150" d="M0 0H7.116V4.284H0z" class="prefix__cls-1" data-name="Rectángulo 1150"/>
        </g>
    </g>
    <g id="prefix__Grupo_104" data-name="Grupo 104" transform="translate(68.79 21.422)">
        <g id="prefix__Grupo_103" data-name="Grupo 103">
            <path id="prefix__Rectángulo_1151" d="M0 0H7.116V4.284H0z" class="prefix__cls-1" data-name="Rectángulo 1151"/>
        </g>
    </g>
</svg>
